X:12466
T:Os Reises (XA 08)
C:Tradicional
S:Música Tradicional Asturiana, (C) Tello & Tito. Asturies, 2001.
S:http://pagina.de/MusTradAst <telloytito@asturies.org>
A:Asturies
Z:Métodu de Xuacu Amieva 08
M:4/4
L:1/8
Q:1/4=90
K:C
CD
|: E2 ED-DCB,C|D2 ED-DDDE|F2 FE-EDCD|C2 B,C-CCCE|
|D2 CB,-B,B,B,C|D2 ED-DDDE|F2 FE-EDCD|[1 C2 B,C-CC-C2-|C6 CD :|[2 C2 B,C-CC-C2-|C6 EF|
|: G2 GF-FEDE|F2 GF-FFFG|A2 AG-GFEF|E2 DE-EEEG|
|F2 ED-DDDE|F2 GF-FFFG|A2 AG-GFEF|E2 DE-EE-E2-|[1 E6 EF :|[2 E8|


